X:1
T:Crosshill, 99.94 D
T:Crosshill, 99.94 D
T:Eric Hubert Swinstead
C:Eric Hubert Swinstead
%%score ( 1 2 ) ( 3 4 )
L:1/8
Q:1/4=103
M:4/4
K:Eb
V:1 treble 
V:2 treble 
V:3 bass 
V:4 bass 
V:1
 [EG]3 [EG] [EA][EG][DF]E | [Ec]2 [Dc]2 [EB]4 | [EG]3 [FG] [Ge][Ge][Gd][Gc] | [Fd]2 [Ec]2 [DB]4 | %4
 [F_d]3 [Fd] [=Ec][EG][_E^F][=EG] | [GB]2 [FA]2 [FA]2 [EG]2 | [EG]6 [CE]2 | [DF]6 z2 | %8
 [EG]3 [EG] [B,F][B,E][=A,D][A,E] | [CEB]2 [CEA]2 [B,DA]4 | [DA]3 [DA] [DG][DF][^C=E][DF] | %11
 [Ec]2 [EB]2 [EB]4 | [Ee]3 [Ee] [Fe][Fd][Ec][F=B] | [Ed]2 [Ec]2 [=EB]2 [FA]2 | G6 [DF]2 | E8 |] %16
V:2
 x7 E | x8 | x8 | x8 | x8 | x8 | x8 | x8 | x8 | x8 | x8 | x8 | x8 | x8 | (E2 C2 D2) x2 | E8 |] %16
V:3
 [E,B,]3 [E,B,] [E,C][E,B,][E,A,][E,G,] | A,2 [F,A,]2 [G,B,]4 | %2
 [E,B,]3 [D,=B,] [C,C][C,C][D,B,][E,C] | [F,B,]2 [F,=A,]2 B,4 | [A,B,]3 [A,B,] G,[C,C][C,C][C,C] | %5
 [F,C]2 [F,C]2 [F,C]2 [G,,G,C]2 | [A,,C]4 [=A,,C]4 | [B,,B,]6 z2 | %8
 [E,B,]3 [E,B,] [G,,E,][G,,E,][_G,,D,][G,,C,] | [F,,F,]2 [F,,F,]2 [B,,B,]4 | %10
 [B,,B,]3 [B,,B,] B,B,[A,B,][A,B,] | [E,A,]2 [E,G,]2 [E,G,]4 | %12
 [G,B,]3 [G,B,] [G,,G,][G,,G,][G,,G,][G,,G,] | [A,,A,]2 [A,,A,]2 [C,G,]2 [F,C]2 | %14
 (B,2 =A,2 _A,2) [B,,A,]2 | [E,G,]8 |] %16
V:4
 x8 | A,2 x6 | x8 | x4 B,4 | x4 G, x3 | x8 | x8 | x8 | x8 | x8 | x4 B,B, x2 | x8 | x8 | x8 | %14
 B,,6 x2 | x8 |] %16

